!!!!SEGMENT: pl-sa--82-a-ii-22--001_anonim--missa-ex-f-kyrie.krn
!!!cenid: 17xx:1531
!!!COM: Anonim
!!!COM-rismID: pe30004985
!!!CDT:
!!!CNT:
!!!OPR: Missa ex F
!!!OTL: Kyrie
!!!OMV: 001
!!!PDT:
!!!AGN: Sacred; Mass
!!!SMS-siglum: PL-SA
!!!SMS-shelfmark: 82/A II 22
!!!SMS-shelfwork: 001-001 M
!!!SMS-variant:
!!!SMS-altvar:
!!!NIFC-rismSourceID: 1001035461
!!!NIFC-rismChildID: 1001035461
!!!NIFC-islandoraID:
!!!URL-pdf-islandora:
!!!URL-scan: https://bc.bdsandomierz.pl/dlibra/publication/1360/edition/1328/content @EN{Scan in the Sandomierz Diocese Digital Library} @PL{Skany w portalu Cyfrowa Biblioteka Diecezjalna w Sandomierzu}
!!!ONB-nifc: UWAGA: części Mszy: 1. Kyrie, 2. Gloria, 3. Patrem, 4. Sanctus, 5. Benedictus, 6. Agnus Dei
!!!AIN: 1 organ 2 soprn 2 violn
!!!key: F
**kern	**dynam	**kern	**dynam	**kern	**dynam	**kern	**text	**kern	**text
*part5	*part5	*part4	*part4	*part3	*part3	*part2	*part2	*part1	*part1
*staff5	*	*staff4	*	*staff3	*	*staff2	*staff2	*staff1	*staff1
*I"Baſso.	*	*I"Violino 2do	*	*I"Violino Primo	*	*I"Canto Secundo.	*	*I"Canto	*
*I'B	*	*I'vl II	*	*I'vl I	*	*I'S II	*	*I'S	*
*ICklav	*	*ICstr	*	*ICstr	*	*ICvox	*	*ICvox	*
*Iorgan	*	*Ivioln	*	*Ivioln	*	*Isoprn	*	*Isoprn	*
*clefF4	*	*clefG2	*	*clefG2	*	*clefC1	*	*clefC1	*
*k[b-]	*	*k[b-]	*	*k[b-]	*	*k[b-]	*	*k[b-]	*
*F:	*	*F:	*	*F:	*	*F:	*	*F:	*
*M4/4	*	*M4/4	*	*M4/4	*	*M4/4	*	*M4/4	*
*met(c)	*	*met(c)	*	*met(c)	*	*met(c)	*	*met(c)	*
=1	=1	=1	=1	=1	=1	=1	=1	=1	=1
!LO:TX:a:B:t=Adagio	!	!LO:TX:b:t=Kyrie	!	!LO:TX:b:t=Kyrie	!	!	!	!	!
!LO:TX:b:t=Kyrie =	!	!LO:TX:a:B:t=Adagio	!	!LO:TX:a:B:t=Adagio	!	!LO:TX:a:B:t=Adagio	!	!LO:TX:a:B:t=Adagio	!
4.F\	.	4.a/	.	4.cc\	.	4.a\	Ky-	4.cc\	Ky-
8F\	.	8a/	.	8cc\	.	8a\	-ri-	8cc\	-ri-
4F\	.	8f/L	.	8a\L	.	4f/	-e	4a\	-e
.	.	8a/	.	8ff\	.	.	.	.	.
4r	.	8g/	.	8ee\	.	4r	.	4r	.
.	.	8b-/J	.	8dd\J	.	.	.	.	.
=2	=2	=2	=2	=2	=2	=2	=2	=2	=2
4.F\	.	4.a/	.	4.cc\	.	4.a\	Ky-	4.cc\	Ky-
8F\	.	8a/	.	8cc\	.	8a\	-ri-	8cc\	-ri-
!	!	!	!LO:DY:b:t=f.	!	!	!	!	!	!
!LO:N:vis=8	!	!	!	!	!	!	!	!	!
4F\	.	8f/L	f	8a/L	.	4f/	-e	4a\	-e
.	.	8b-/	.	8dd/	.	.	.	.	.
4r	.	8a/	.	8cc/	.	4r	.	4r	.
.	.	8g/J	.	8b-/J	.	.	.	.	.
=3	=3	=3	=3	=3	=3	=3	=3	=3	=3
4F\	.	4f/	.	4a/	.	4f/	e-	4a\	e-
4C/	.	4g/	.	4b-/	.	4g/	-ley-	4b-\	-ley-
4FF/	.	4a/	.	4cc/	.	4a/	-son	4cc\	-son
4r	.	8r	.	8r	.	8r	.	8r	.
.	.	8b-\	.	8dd\	.	8b-\	e-	8dd\	e-
=4	=4	=4	=4	=4	=4	=4	=4	=4	=4
*tremolo	*	*	*	*	*	*	*	*	*
!	!	!	!	!	!	!	!	!	!
8F\L	.	8a/L	.	8cc\L	.	8a\	.	8cc\	.
8F\	.	8f/	.	8a\	.	8f\	.	8a\	.
8F\	.	8g/	.	8b-\	.	8g\	.	8b-\	.
8F\J	.	8e/J	.	8g\J	.	8e/	-ley-	8g\	ley-
8F\L	.	4f/	.	4f/	.	4f/	-son	4f/	-son
8F\	.	.	.	.	.	.	.	.	.
8F\	.	4a/	.	4ff\	.	4a/	e-	4ff\	e-
8F\J	.	.	.	.	.	.	.	.	.
!	!	!	!	!	!	!LO:LB:g=original	!	!LO:LB:g=original	!
=5	=5	=5	=5	=5	=5	=5	=5	=5	=5
!	!	!	!	!LO:SIC:s:v=bn	!	!	!	!	!
4G\	.	4.d/	.	4.b\	.	4.d/	-ley-	4.bn\	-ley-
4GG/	.	.	.	.	.	.	.	.	.
!	!	!	!	!LO:SIC:s:v=bn	!	!	!	!	!
.	.	8d/	.	8b-y\	.	8d/	.	8b\	.
4C;/	.	4e/	.	4cc;\	.	4e;/	-son	4cc;\	-son
4r	.	4r;	.	4r	.	4r	.	4r	.
=6||	=6||	=6||	=6||	=6||	=6||	=6||	=6||	=6||	=6||
*k[b-]	*	*k[b-]	*	*k[b-]	*	*k[b-]	*	*k[b-]	*
*M3/8	*	*M3/8	*	*M3/8	*	*M3/8	*	*M3/8	*
!LO:TX:t=P:problem=brak znaku BB-	!	!	!	!	!	!	!	!	!
!LO:TX:b:t=Kyrie =	!	!LO:TX:b:t=Kyrie	!	!LO:TX:a:t=allo.	!	!	!	!LO:TX:b:t=8.	!
!LO:TX:a:t=allo	!	!LO:TX:a:t=allo.	!	!LO:TX:b:t=Kyrie	!	!LO:TX:a:t=8	!	!LO:TX:a:t=allo.	!
8F\L	.	8.a/L	.	8.cc\L	.	4.r	.	4.r	.
8F\	.	.	.	.	.	.	.	.	.
.	.	16g/K	.	16b-\K	.	.	.	.	.
8F\J	.	8f/J	.	8a\J	.	.	.	.	.
=7	=7	=7	=7	=7	=7	=7	=7	=7	=7
8F\L	.	8f/L	.	8a/L	.	4.r	.	4.r	.
8F\	.	8e/	.	8g/	.	.	.	.	.
8F\J	.	8f/J	.	8a/J	.	.	.	.	.
!	!	!LO:LB:g=original	!	!LO:LB:g=original	!	!	!	!	!
=8	=8	=8	=8	=8	=8	=8	=8	=8	=8
8E\L	.	8.b-/L	.	8.dd\L	.	4.r	.	4.r	.
8E\	.	.	.	.	.	.	.	.	.
.	.	16a/K	.	16cc\K	.	.	.	.	.
8E\J	.	8g/J	.	8b-\J	.	.	.	.	.
=9	=9	=9	=9	=9	=9	=9	=9	=9	=9
8E\L	.	8g/L	.	8b-/L	.	4.r	.	4.r	.
8E\	.	8f/	.	8a/	.	.	.	.	.
8E\J	.	8g/J	.	8b-/J	.	.	.	.	.
!LO:LB:g=original	!	!	!	!	!	!	!	!	!
=10	=10	=10	=10	=10	=10	=10	=10	=10	=10
8C/L	.	8.c/L	.	8.e/L	.	4.r	.	4.r	.
8C/	.	.	.	.	.	.	.	.	.
.	.	16d/K	.	16f/K	.	.	.	.	.
8C/J	.	8e/J	.	8g/J	.	.	.	.	.
=11	=11	=11	=11	=11	=11	=11	=11	=11	=11
8C/L	.	8.e/L	.	8.g/L	.	4.r	.	4.r	.
8C/	.	.	.	.	.	.	.	.	.
.	.	16f/K	.	16a/K	.	.	.	.	.
8C/J	.	8g/J	.	8b-/J	.	.	.	.	.
=12	=12	=12	=12	=12	=12	=12	=12	=12	=12
8F\L	.	8f/L	.	8a/L	.	4.r	.	4.r	.
8F\	.	8a/	.	8cc/	.	.	.	.	.
8F\J	.	8f/J	.	8a/J	.	.	.	.	.
=13	=13	=13	=13	=13	=13	=13	=13	=13	=13
4C/	.	4e/	.	4g/	.	4.r	.	4.r	.
8r	.	8r	.	8r	.	.	.	.	.
=14	=14	=14	=14	=14	=14	=14	=14	=14	=14
!	!	!	!	!	!	!LO:TX:a:t=allo.	!	!	!
!	!	!	!	!	!LO:DY:b	!	!	!	!
!	!	!	!LO:DY:b	!	!	!	!	!	!
!	!LO:DY:b:t=p.	!	!	!	!	!	!	!	!
8F\L	p	8.a/L	pp	8.cc/L	p	8.a\	Ky-	8.cc\	Ky-
8F\	.	.	.	.	.	.	.	.	.
.	.	16g/K	.	16b-/K	.	16g\	-ri-	16b-\	-ri-
8F\J	.	8f/J	.	8a/J	.	8f/	-e	8a\	-e
=15	=15	=15	=15	=15	=15	=15	=15	=15	=15
8F\L	.	8f/L	.	8a/L	.	8f/	e-	8a\	e-
8F\	.	8e/	.	8g/	.	8e/	-ley-	8g\	-ley-
8F\J	.	8f/J	.	8a/J	.	8f/	-son	8a\	-son.
=16	=16	=16	=16	=16	=16	=16	=16	=16	=16
8E\L	.	8.b-/L	.	8.dd\L	.	8.b-\	Ky-	8.dd\	Ky-
8E\	.	.	.	.	.	.	.	.	.
.	.	16a/K	.	16cc\K	.	16a\	-ri-	16cc\	-ri-
8E\J	.	8g/J	.	8b-\J	.	8g\	-e	8b-\	-e
=17	=17	=17	=17	=17	=17	=17	=17	=17	=17
!LO:TX:t=P:problem= kolejny takt skreślony	!	!	!	!	!	!	!	!	!
8C/L	.	8g/L	.	8b-/L	.	8g/	e-	8b-\	e-
8C/	.	8f/	.	8a/	.	8f/	-ley-	8a\	-ley-
8C/J	.	8g/J	.	8b-/J	.	8g/	-son	8b-\	-son.
=18	=18	=18	=18	=18	=18	=18	=18	=18	=18
!	!LO:DY:b:t=fo	!	!	!	!	!	!	!	!
8C/L	f	8.b-/L	.	8.gg\L	.	8.b-\	Ky-	8.gg\	Ky-
8C/	.	.	.	.	.	.	.	.	.
.	.	16g/K	.	16ee\K	.	16g\	-ri-	16ee\	-ri-
8C/J	.	8e/J	.	8cc\J	.	8e/	-e	8cc\	-e
!	!	!LO:LB:g=original	!	!	!	!LO:LB:g=original	!	!LO:LB:g=original	!
=19	=19	=19	=19	=19	=19	=19	=19	=19	=19
8C/L	.	8e/L	.	8cc\L	.	8e/	.	8cc\	.
8D/	.	8f/	.	8dd\	.	8b-\	.	8dd\	.
8E/J	.	8g/J	.	8ee\J	.	8g\	.	8ee\	.
=20	=20	=20	=20	=20	=20	=20	=20	=20	=20
8F\L	.	4a/	.	4ff\	.	4a\	e-	4ff\	e-
8F\	.	.	.	.	.	.	.	.	.
8F\J	.	8a/	.	8ff\	.	8a\	-ley-	8ff\	-ley-
=21	=21	=21	=21	=21	=21	=21	=21	=21	=21
*Xtremolo	*	*	*	*	*	*	*	*	*
8F\L	.	4a/	.	4ff\	.	4a\	-son	4ff\	-son
8A\	.	.	.	.	.	.	.	.	.
8F\J	.	8r	.	8r	.	8r	.	8r	.
!	!	!	!	!LO:LB:g=original	!	!	!	!	!
*tremolo	*	*	*	*	*	*	*	*	*
=22	=22	=22	=22	=22	=22	=22	=22	=22	=22
!	!	!	!	!	!	!LO:TX:a:t=8	!	!LO:TX:a:t=8	!
!	!	!	!	!	!LO:DY:b:t=for	!	!	!	!
!	!	!	!LO:DY:b:t=for.	!	!	!	!	!	!
8F\L	.	8a/L	f	8cc\L	f	4.r	.	4.r	.
8F\	.	8a/	.	8ff\	.	.	.	.	.
8F\J	.	8a/J	.	8cc\J	.	.	.	.	.
=23	=23	=23	=23	=23	=23	=23	=23	=23	=23
8F\L	.	8.a/L	.	8.cc\L	.	4.r	.	4.r	.
8F\	.	.	.	.	.	.	.	.	.
.	.	16g/K	.	16b-\K	.	.	.	.	.
8F\J	.	8f/J	.	8a\J	.	.	.	.	.
=24	=24	=24	=24	=24	=24	=24	=24	=24	=24
*	*	*tremolo	*	*	*	*	*	*	*
8C/L	.	8g/L	.	8b-\L	.	4.r	.	4.r	.
8C/	.	8g/	.	8b-\	.	.	.	.	.
8C/J	.	8g/J	.	8b-\J	.	.	.	.	.
*	*	*Xtremolo	*	*	*	*	*	*	*
=25	=25	=25	=25	=25	=25	=25	=25	=25	=25
8C/L	.	4g/	.	4b-/	.	4.r	.	4.r	.
8C/	.	.	.	.	.	.	.	.	.
8C/J	.	8e/	.	8g/	.	.	.	.	.
=26	=26	=26	=26	=26	=26	=26	=26	=26	=26
!	!	!	!	!	!	!	!	!	!
8C/	.	8g/L	.	8g/L	.	4.r	.	4.r	.
8r	.	8g/	.	8gg\	.	.	.	.	.
8r	.	8g/J	.	8ee\J	.	.	.	.	.
=27	=27	=27	=27	=27	=27	=27	=27	=27	=27
8E\	.	8.g/L	.	8.b-\L	.	4.r	.	4.r	.
8r	.	.	.	.	.	.	.	.	.
.	.	16f/K	.	16a\K	.	.	.	.	.
8r	.	8e/J	.	8g\J	.	.	.	.	.
!LO:LB:g=original	!	!	!	!	!	!	!	!	!
=28	=28	=28	=28	=28	=28	=28	=28	=28	=28
8F\L	.	8a/L	.	8cc\L	.	4.r	.	4.r	.
8A\	.	8a/	.	8cc\	.	.	.	.	.
8c\J	.	8a/J	.	8cc\J	.	.	.	.	.
=29	=29	=29	=29	=29	=29	=29	=29	=29	=29
4F\	.	4a/	.	4cc\	.	4.r	.	4.r	.
8r	.	8r	.	8r	.	.	.	.	.
=30	=30	=30	=30	=30	=30	=30	=30	=30	=30
!	!	!	!LO:DY:b	!	!	!	!	!	!
8F\	.	4a/	p	4cc/	.	4a\	Chri-	4cc\	Chri-
8r	.	.	.	.	.	.	.	.	.
8r	.	8g/	.	8b-/	.	8g\	.	8b-\	.
=31	=31	=31	=31	=31	=31	=31	=31	=31	=31
8F\	.	4f/	.	4a/	.	4f/	.	4a\	.
8r	.	.	.	.	.	.	.	.	.
8r	.	8b-\	.	8dd/	.	8b-\	-ste	8dd\	-ste
!	!	!LO:LB:g=original	!	!	!	!	!	!	!
=32	=32	=32	=32	=32	=32	=32	=32	=32	=32
8C/	.	4g/	.	4b-/	.	4g/	chri-	4b-\	Chri-
8r	.	.	.	.	.	.	.	.	.
8r	.	8f/	.	8a/	.	8f/	.	8a\	.
=33	=33	=33	=33	=33	=33	=33	=33	=33	=33
8C/	.	4e/	.	4g/	.	4e/	.	4g\	.
8r	.	.	.	.	.	.	.	.	.
8r	.	8a/	.	8cc\	.	8a/	-ste.	8cc\	-ste.
=34	=34	=34	=34	=34	=34	=34	=34	=34	=34
8F\	.	4f/	.	4a/	.	4f/	chri-	4a\	chri-
8r	.	.	.	.	.	.	.	.	.
8r	.	8f/	.	8a/	.	8f/	-ste	8a\	-ste
=35	=35	=35	=35	=35	=35	=35	=35	=35	=35
!LO:TX:a:t=1	!	!	!	!	!	!	!	!	!
4.r	.	8g/L	.	8b-\L	.	8g\	e-	8b-\	e-
.	.	8a/	.	8cc\	.	8a\	.	8cc\	.
.	.	8b-/J	.	8dd\J	.	8b-\	.	8dd\	.
=36	=36	=36	=36	=36	=36	=36	=36	=36	=36
8C/	.	4e/	.	4g/	.	4e/	-ley-	4g\	ley-
8r	.	.	.	.	.	.	.	.	.
8r	.	8e/	.	8g/	.	8e/	-son	8g\	-son
!	!	!	!	!	!	!LO:LB:g=original	!	!LO:LB:g=original	!
=37	=37	=37	=37	=37	=37	=37	=37	=37	=37
!LO:TX:a:t=1	!	!	!	!	!	!	!	!	!
4.r	.	8f/L	.	8a/L	.	8f/	Chri-	8a\	chri-
.	.	8g/	.	8b-/	.	8g/	.	8b-\	.
.	.	8a/J	.	8cc/J	.	8a/	-ste	8cc\	-ste
!	!	!	!	!LO:LB:g=original	!	!	!	!	!
=38	=38	=38	=38	=38	=38	=38	=38	=38	=38
*	*	*	*	*	*	*	*ij	*	*
8F\L	.	8a/L	.	8ff\L	.	8a\	Chri-	8ff\L	.
8F\	.	8a/	.	8cc\	.	8a\	.	8cc\	.
8F\J	.	8a/J	.	8cc\J	.	8a\	-ste	8cc\J	.
*	*	*	*	*	*	*	*Xij	*	*
=39	=39	=39	=39	=39	=39	=39	=39	=39	=39
8F\L	.	8.b-/L	.	8.dd\L	.	8.b-\	chri-	8.dd\	chri-
8F\	.	.	.	.	.	.	.	.	.
.	.	16a/K	.	16cc\K	.	16a\	.	16cc\	.
8F\J	.	8g/J	.	8b-\J	.	8g\	-ste	8b-\	-ste
=40	=40	=40	=40	=40	=40	=40	=40	=40	=40
*Xtremolo	*	*	*	*	*	*	*	*	*
8C/L	.	8g/L	.	8ee\L	.	8g\	e-	8ee\	e-
8C/	.	8g/	.	8ee\	.	8g\	.	8ee\	.
8C/J	.	8b-/J	.	8gg\J	.	8b-\	.	8gg\	.
=41	=41	=41	=41	=41	=41	=41	=41	=41	=41
8C/L	.	8b-/L	.	8gg\L	.	8b-\	-ley-	8gg\	-ley-
8FF/J	.	8a/J	.	8ff\J	.	8a\	-son	8ff\	-son
8r	.	8r	.	8r	.	8r	.	8r	.
=42	=42	=42	=42	=42	=42	=42	=42	=42	=42
!	!	!	!	!	!	!LO:TX:a:t=8	!	!LO:TX:a:t=8	!
!	!	!	!	!	!LO:DY:b:t=for	!	!	!	!
!	!	!	!LO:DY:b:t=for	!	!	!	!	!	!
8F\	.	8a\L	f	8ff\L	f	4.r	.	4.r	.
8r	.	8a\	.	8ff\	.	.	.	.	.
8r	.	8cc\J	.	8aa\J	.	.	.	.	.
=43	=43	=43	=43	=43	=43	=43	=43	=43	=43
16C/LL	.	4b-\	.	4gg\	.	4.r	.	4.r	.
16D/	.	.	.	.	.	.	.	.	.
16E/	.	.	.	.	.	.	.	.	.
16F/	.	.	.	.	.	.	.	.	.
16G/	.	8g/	.	8ee\	.	.	.	.	.
16E/JJ	.	.	.	.	.	.	.	.	.
!LO:LB:g=original	!	!	!	!	!	!	!	!	!
=44	=44	=44	=44	=44	=44	=44	=44	=44	=44
8F\	.	8a/L	.	8ff\L	.	4.r	.	4.r	.
8r	.	16a/L	.	16ff\L	.	.	.	.	.
.	.	16g/	.	16ee\	.	.	.	.	.
8r	.	16a/	.	16ff\	.	.	.	.	.
.	.	16cc/JJ	.	16aa\JJ	.	.	.	.	.
!	!	!LO:LB:g=original	!	!	!	!	!	!	!
=45	=45	=45	=45	=45	=45	=45	=45	=45	=45
16C/LL	.	4b-\	.	4gg\	.	4.r	.	4.r	.
16D/	.	.	.	.	.	.	.	.	.
16E/	.	.	.	.	.	.	.	.	.
16F/	.	.	.	.	.	.	.	.	.
16G/	.	8g/	.	8ee\	.	.	.	.	.
16E/JJ	.	.	.	.	.	.	.	.	.
=46	=46	=46	=46	=46	=46	=46	=46	=46	=46
8F\L	.	8a/L	.	8ff\L	.	4.r	.	4.r	.
8F\	.	8a/	.	8ee-X\	.	.	.	.	.
8F\J	.	8a/J	.	8cc#X\J	.	.	.	.	.
=47	=47	=47	=47	=47	=47	=47	=47	=47	=47
4E\	.	4b-/	.	4dd\	.	4.r	.	4.r	.
8C\	.	8g/	.	8b-\	.	.	.	.	.
=48	=48	=48	=48	=48	=48	=48	=48	=48	=48
16A\LL	.	4c/	.	4a/	.	4.r	.	4.r	.
16B-\JJ	.	.	.	.	.	.	.	.	.
!LO:TX:t=P:problem=mixed beam	!	!	!	!	!	!	!	!	!
8c\L	.	.	.	.	.	.	.	.	.
8C/J	.	8B-/	.	8g/	.	.	.	.	.
=49	=49	=49	=49	=49	=49	=49	=49	=49	=49
!	!	!	!	!	!	!	!	!	!
8F\L	.	4A/	.	4f/	.	4.r	.	4.r	.
8C/J	.	.	.	.	.	.	.	.	.
8FF/	.	8r	.	8r	.	.	.	.	.
=50	=50	=50	=50	=50	=50	=50	=50	=50	=50
!	!	!	!	!	!LO:DY:b	!	!	!	!
!	!	!	!LO:DY:b	!	!	!	!	!	!
16F\LL	.	4a/	p	4cc\	p	4a\	Ky-	4cc\	Ky-
16E\	.	.	.	.	.	.	.	.	.
16F\	.	.	.	.	.	.	.	.	.
16G\	.	.	.	.	.	.	.	.	.
16A\	.	8a/	.	8cc\	.	8a\	-rie	8cc\	-rie
!LO:TX:a:t=f.	!	!	!	!	!	!	!	!	!
16F\JJ	.	.	.	.	.	.	.	.	.
=51	=51	=51	=51	=51	=51	=51	=51	=51	=51
*	*	*	*	*	*	*	*ij	*	*ij
16F\LL	.	4a/	.	4cc\	.	4a\	Ky-	4cc\	Ky-
16E\	.	.	.	.	.	.	.	.	.
16F\	.	.	.	.	.	.	.	.	.
16G\	.	.	.	.	.	.	.	.	.
16A\	.	8a/	.	8cc\	.	8a\	-rie	8cc\	-rie
16F\JJ	.	.	.	.	.	.	.	.	.
*	*	*	*	*	*	*	*Xij	*	*Xij
!	!	!	!	!LO:LB:g=original	!	!LO:LB:g=original	!	!	!
=52	=52	=52	=52	=52	=52	=52	=52	=52	=52
!	!	!	!	!	!	!	!	!	!
8B-\L	.	8b-\L	.	8dd\L	.	8b-\	e-	8dd\	e-
8F\	.	8d/	.	8b-\	.	8d/	.	8b-\	.
8D\J	.	8d/J	.	8b-\J	.	8d/	-ley-	8b-\	-ley-
!	!	!	!	!	!	!	!	!LO:LB:g=original	!
=53	=53	=53	=53	=53	=53	=53	=53	=53	=53
8BB-/L	.	4d/	.	4b-\	.	4d/	-son	4b-\	-son
8D/	.	.	.	.	.	.	.	.	.
8F/J	.	8r	.	8r	.	8r	.	8r	.
=54	=54	=54	=54	=54	=54	=54	=54	=54	=54
16G\LL	.	4bn\	.	4dd\	.	4bn\	Ky-	4dd\	Ky-
16F#X\	.	.	.	.	.	.	.	.	.
16G\	.	.	.	.	.	.	.	.	.
16A\	.	.	.	.	.	.	.	.	.
16Bn\	.	8b\	.	8dd\	.	8b\	-rie	8dd\	-rie
16G\JJ	.	.	.	.	.	.	.	.	.
=55	=55	=55	=55	=55	=55	=55	=55	=55	=55
*	*	*	*	*	*	*	*ij	*	*ij
!	!	!	!	!	!	!LO:SIC:s:v=bn	!	!	!
16G\LL	.	4bn\	.	4dd\	.	4b-\	Ky-	4dd\	Ky-
16F#X\	.	.	.	.	.	.	.	.	.
16G\	.	.	.	.	.	.	.	.	.
16A\	.	.	.	.	.	.	.	.	.
!	!	!	!	!	!	!LO:SIC:s:v=bn	!	!	!
16Bn\	.	8b\	.	8dd\	.	8b-\	-rie	8dd\	-rie
16G\JJ	.	.	.	.	.	.	.	.	.
*	*	*	*	*	*	*	*Xij	*	*Xij
!LO:LB:g=original	!	!	!	!	!	!	!	!	!
=56	=56	=56	=56	=56	=56	=56	=56	=56	=56
!	!	!	!	!	!	!	!	!	!
8c\L	.	8cc\L	.	8ee\L	.	8cc\	e-	8ee\	e-
8G\	.	8e/	.	8cc\	.	8e/	.	8cc\	.
8E\J	.	8e/J	.	8cc\J	.	8e/	-ley-	8cc\	-ley-
=57	=57	=57	=57	=57	=57	=57	=57	=57	=57
8C/L	.	4e/	.	4cc\	.	4e/	-son	4cc\	-son.
8E/	.	.	.	.	.	.	.	.	.
8G/J	.	8r	.	8r	.	8r	.	8r	.
!	!	!LO:LB:g=original	!	!	!	!	!	!	!
=58	=58	=58	=58	=58	=58	=58	=58	=58	=58
*tremolo	*	*	*	*	*	*	*	*	*
8F\L	.	4a/	.	4cc\	.	4a\	Ky-	4cc\	Ky-
8F\	.	.	.	.	.	.	.	.	.
8F\J	.	8g/	.	8b-\	.	8g\	-rie	8b-\	-rie
=59	=59	=59	=59	=59	=59	=59	=59	=59	=59
8F\L	.	4f/	.	4a/	.	4f\	.	4a\	.
8F\	.	.	.	.	.	.	.	.	.
8F\J	.	8b-\	.	8dd\	.	8b-\	.	8dd\	.
=60	=60	=60	=60	=60	=60	=60	=60	=60	=60
8C/L	.	4g/	.	4b-/	.	4g/	.	4b-\	.
8C/	.	.	.	.	.	.	.	.	.
8C/J	.	8f/	.	8a/	.	8f/	.	8a\	.
!	!	!	!	!	!	!LO:LB:g=original	!	!	!
=61	=61	=61	=61	=61	=61	=61	=61	=61	=61
8C/L	.	4e/	.	4g/	.	4e/	ley-	4g\	ley-
8C/	.	.	.	.	.	.	.	.	.
!	!	!	!	!LO:TX:a:t=c	!	!	!	!	!
8C/J	.	8a/	.	8cc\	.	8a/	-son	8cc\	-son
*Xtremolo	*	*	*	*	*	*	*	*	*
=62	=62	=62	=62	=62	=62	=62	=62	=62	=62
!	!	!	!	!	!	!LO:SIC:s:v=bn	!	!	!
8G\L	.	8bn\L	.	8dd\L	.	8b-\	Ky-	8dd\	Ky-
!	!	!	!	!	!	!LO:SIC:s:v=bn	!	!	!
8E\	.	8b\	.	8dd\	.	8b-\	-ri-	8dd\	-ri-
!	!	!	!	!	!	!LO:SIC:s:v=bn	!	!	!
8C\J	.	8b\J	.	8dd\J	.	8b-\	-e	8dd\	-e
!	!	!	!	!	!	!	!	!LO:LB:g=original	!
=63	=63	=63	=63	=63	=63	=63	=63	=63	=63
*	*	*	*	*	*	*	*ij	*	*
8C/L	.	8g/L	.	8ee\L	.	8g\	Ky-	8ee\	Ky-
8D/	.	8g/	.	8ee\	.	8g\	-ri-	8ee\	-ri-
8E/J	.	8g/J	.	8ee\J	.	8g\	-e	8ee\	-e
*	*	*	*	*	*	*	*Xij	*	*
=64	=64	=64	=64	=64	=64	=64	=64	=64	=64
8F\L	.	4a/	.	4ff\	.	4a\	e-	4ff\	e-
8A\	.	.	.	.	.	.	.	.	.
8c\J	.	8a/	.	8ff\	.	8a\	-ley-	8ff\	-ley-
=65	=65	=65	=65	=65	=65	=65	=65	=65	=65
4F\	.	4a/	.	4ff\	.	4a\	-son	4ff\	-son
8r	.	8r	.	8r	.	8r	.	8r	.
==	==	==	==	==	==	==	==	==	==
*-	*-	*-	*-	*-	*-	*-	*-	*-	*-
!!!system-decoration: [(s1,s2)][(s3,s4)][(s5)]
!!!ENC: Marcin Jachim
!!!END: 2021-02-02
!!!ENC: Natalia Wrzos
!!!END: 2022-03-21
!!!YEC: Copyright 2022 Narodowy Instytut Fryderyka Chopina (https://polishscores.org)
!!!YEM: License CC-BY-4.0 (https://creativecommons.org/licenses/by/4.0)
